X: 44
T: Zou xikou
%%abc-version 2.0
%%abcx-abcm2ps-target-version 5.9.1 (29 Sep 2008)
%%abc-creator hum2abc beta
%%abcx-conversion-date 2013/10/02 07:44:27
%%abc-edited-by Helmut Schaffrath
%%humdrum-veritas 1826093276
%%humdrum-veritas-data 1627306077
%%continueall 1
%%barnumbers 0
L: 1/8
M: 4/4
K: C
c> c c c/ A/ f g/ a/ g/ f/ d [I:setbarnb 1]| 
c2_B/ c/ dc4 | 
f d f> d c/ c/ f A G | 
F3D/ C/F4 | 
G> Ac4f3/ d/ | 
c> f A G cF2G | 
_B> G B c G F F D | 
DC2DC4 |]  



